X:1
T:The Faithful Sailor Boy
M:6/8
L:1/8
K:A
 B| A2 c B2 G| F2 F C2 C| D2 DB-A B| C3- C2 C| D2 E F2 C| F2 E F2 A|\
 c2 cc-B A| G3- G2 G| A2 c B2 E| F2 F C2 C| D2 D B2 B| C3- C2 C| D2 E F2 G|\
 A2 d c2 B| A2 C A2 G| F3- F2||
